X:48
T:Valse de Champ Rouget
R:Valse
S:Folklore de champagne n°98
N:p. 126
A:Champagne
G:
O:France
Z:Eric Forgeot - http://anamnese.online.fr
M:3/4
L:1/4
Q:3/4=120
K:G
+segno+
Gcd | e2g | e2g | e3 | efe | edc | ded | cBA |
Gcd | e2g | e2g | e3 | efe | edc | ded | c3 :|
d>d d/2d/2 | dBd | g2f | c3 c>c c/2c/2 | cBc | e2d | B3 |
d>d d/2d/2 | dBd | g2f | c3 c>c c/2c/2 | cBc | e2f | g3 +segno+|]
